en/_assets/wiki/svg/wysiwyg/section-all-right.svg

<svg xmlns="http://www.w3.org/2000/svg" xmlns:xlink="http://www.w3.org/1999/xlink" width="24" height="24" class="yc-icon" fill="currentColor" stroke="none" aria-hidden="true"><svg viewBox="0 0 24 24" fill="none" xmlns="http://www.w3.org/2000/svg"><path fill-rule="evenodd" clip-rule="evenodd" d="M20 6.25C20.4142 6.25 20.75 6.58579 20.75 7V17C20.75 17.4142 20.4142 17.75 20 17.75C19.5858 17.75 19.25 17.4142 19.25 17V7C19.25 6.58579 19.5858 6.25 20 6.25ZM4 6.25C4.41421 6.25 4.75 6.58579 4.75 7V17C4.75 17.4142 4.41421 17.75 4 17.75C3.58579 17.75 3.25 17.4142 3.25 17V7C3.25 6.58579 3.58579 6.25 4 6.25ZM8.21953 10.5068L7.53826 11.25H16.4617L15.7805 10.5068C15.5006 10.2014 15.5212 9.72702 15.8265 9.44713C16.1319 9.16724 16.6063 9.18786 16.8862 9.4932L18.5529 11.3114C18.8157 11.5981 18.8157 12.0382 18.5529 12.325L16.5529 14.5068C16.273 14.8121 15.7985 14.8328 15.4932 14.5529C15.1879 14.273 15.1672 13.7985 15.4471 13.4932L16.1284 12.75H7.8716L8.55287 13.4932C8.83276 13.7985 8.81213 14.273 8.50679 14.5529C8.20145 14.8328 7.72703 14.8121 7.44713 14.5068L5.44713 12.325C5.18429 12.0382 5.18429 11.5981 5.44713 11.3114L7.1138 9.4932C7.39369 9.18786 7.86812 9.16724 8.17346 9.44713C8.4788 9.72702 8.49943 10.2014 8.21953 10.5068Z" fill="currentColor"></path></svg></svg>

<svg xmlns="http://www.w3.org/2000/svg" width="24" height="24" fill="currentColor" aria-hidden="true" class="yc-icon">
    <svg xmlns="http://www.w3.org/2000/svg" fill="none" viewBox="0 0 24 24">
        <path fill="currentColor" fill-rule="evenodd" d="M20 6.25a.75.75 0 0 1 .75.75v10a.75.75 0 0 1-1.5 0V7a.75.75 0 0 1 .75-.75Zm-16 0a.75.75 0 0 1 .75.75v10a.75.75 0 0 1-1.5 0V7A.75.75 0 0 1 4 6.25Zm4.22 4.257-.682.743h8.924l-.681-.743a.75.75 0 1 1 1.105-1.014l1.667 1.818a.75.75 0 0 1 0 1.014l-2 2.182a.75.75 0 0 1-1.106-1.014l.681-.743H7.872l.68.743a.75.75 0 0 1-1.105 1.014l-2-2.182a.75.75 0 0 1 0-1.014l1.667-1.818a.75.75 0 1 1 1.106 1.014Z" clip-rule="evenodd"/>
    </svg>
</svg>
